!!!COA: Josquin des Prez
!!!CDT: ~1450-1521/08/27
!!!OTL: Domine dominus noster
!!!AGN: Motet
!!!SCT: NJE 16.4
!!!SCA: New Josquin Edition 16.4
!!!voices: 5
**kern	**kern	**kern	**kern	**kern
*staff5	*staff4	*staff3	*staff2	*staff1
*Ivox	*Ivox	*Ivox	*Ivox	*Ivox
*I"Bassus	*I"Tenor2	*I"Tenor1	*I"Altus	*I"Superius
*I'B	*I'T2	*I'T1	*I'A	*I'S
*clefF4	*clefGv2	*clefGv2	*clefGv2	*clefG2
*k[]	*k[]	*k[]	*k[]	*k[]
*M2/1	*M2/1	*M2/1	*M2/1	*M2/1
*met(C|)	*met(C|)	*met(C|)	*met(C|)	*met(C|)
=1-	=1-	=1-	=1-	=1-
!	!	!	!	!
!	!LO:TX:Z=26:t=Canon&colon; Crescite &amp; multiplicamini (T2 sings five iterations of its line,	!	!	!
!	!LO:TX:Z=6:X=75:t=adding one semibreve to every note in each successive statement)	!	!	!
0r	0r	0r	0r	1e
.	.	.	.	1d
=2	=2	=2	=2	=2
0r	0r	0r	1e	1e
.	.	.	1d	1B
=3	=3	=3	=3	=3
0r	0r	0r	1e	2r
.	.	.	.	1e
.	.	.	1B	.
.	.	.	.	2d/
=4	=4	=4	=4	=4
0r	0r	0r	2r	2c/
.	.	.	1e	4B/
.	.	.	.	4A/
.	.	.	.	1B
.	.	.	2d\	.
=5	=5	=5	=5	=5
1A	0r	0r	2c\	2A/
.	.	.	4B\	1e
.	.	.	4A/	.
1G	.	.	1B	.
.	.	.	.	2d/
=6	=6	=6	=6	=6
1A	0r	0r	2A/	2c/
.	.	.	1a	4B/
.	.	.	.	4A/
1E	.	.	.	1B
.	.	.	2g\	.
=7	=7	=7	=7	=7
1D	0r	0r	2f\	2r
.	.	.	4e\	2.a/
.	.	.	4d\	.
1C	.	.	1e	.
.	.	.	.	4g/
.	.	.	.	2cc\
=8	=8	=8	=8	=8
1D	0r	0r	2.d\	2b\
.	.	.	.	1a
.	.	.	4c\	.
1E	.	.	1B	.
.	.	.	.	2g/
=9	=9	=9	=9	=9
0AA	0e	2r	2.A/	2r
.	.	2A/	.	2a/
.	.	.	8G/L	.
.	.	.	8F/J	.
.	.	2A/	1E	2a/
.	.	2A/	.	2a/
=10	=10	=10	=10	=10
0r	0d	2.D/	0r	2.f/
.	.	4E/	.	4g/
.	.	2F/	.	2a/
.	.	2G/	.	2g/
=11	=11	=11	=11	=11
0r	0e	1C	0r	1.g
.	.	4C/	.	.
.	.	4D/	.	.
.	.	4E/	.	4f/
.	.	4F/	.	4e/
=12	=12	=12	=12	=12
2r	0B	2G/	2r	2d/
2E\	.	2G/	2e\	2g/
2E\	.	2G/	2e\	2g/
2E\	.	2G/	2e\	2g/
=13	=13	=13	=13	=13
2.AA/	0A	1.E	2.c\	1.a
4BB/	.	.	4d\	.
2C/	.	.	2e\	.
2D\	.	2F/	2d\	2a/
=14	=14	=14	=14	=14
2GG/	0G	2D/	2B\	2b\
1C	.	1E	1e	1cc
2C/	.	2E/	2e\	2cc\
=15	=15	=15	=15	=15
1F	0A	1F	1c	1a
1F	.	1D	1d	1a
=16	=16	=16	=16	=16
[0E	0B	2.G/	[0e	[0g
.	.	4E/	.	.
.	.	2.G/	.	.
.	.	4A/	.	.
=17	=17	=17	=17	=17
0E]	0r	0B	1e]	0g]
.	.	.	2r	.
.	.	.	2e\	.
=18	=18	=18	=18	=18
0r	0r	0r	2e\	2r
.	.	.	1c	2a/
.	.	.	.	2a/
.	.	.	2c\	2a/
=19	=19	=19	=19	=19
1r	0r	1r	2d\	4f/
.	.	.	.	4g/
.	.	.	2d\	4a/
.	.	.	.	4b\
2r	.	2r	[1e	[1cc
2A\	.	2c\	.	.
=20	=20	=20	=20	=20
2A\	0r	2.f\	1e]	1cc]
1F	.	.	.	.
.	.	4e\	.	.
.	.	2d\	1r	1r
2F\	.	2c\	.	.
=21	=21	=21	=21	=21
2G\	0r	1B	1r	2r
2G\	.	.	.	2g/
2.A\	.	1A	2r	2.cc\
.	.	.	2e\	.
4G\	.	.	.	4b\
=22	=22	=22	=22	=22
2F\	0r	1r	2e\	2a/
2E\	.	.	2c\	2g/
1D	.	2r	2d\	1f
.	.	2A/	2d\	.
=23	=23	=23	=23	=23
0C	0r	2.c\	2.e\	0e
.	.	4B\	4d\	.
.	.	2A/	2c\	.
.	.	2G/	2B\	.
=24	=24	=24	=24	=24
1D	0r	1F	1A	2r
.	.	.	.	2d/
2.E\	.	1E	[1G	2.g/
4D\	.	.	.	4f/
=25	=25	=25	=25	=25
2C/	0r	2r	1G]	2e/
2BB/	.	2D/	.	2d/
1AA	.	2E/	2r	1c
.	.	2F/	2A/	.
=26	=26	=26	=26	=26
2GG/	0r	2D/	2B\	2B/
2C/	.	2E/	2c\	1e
1D	.	1F	2A/	.
.	.	.	2B\	2d/
=27	=27	=27	=27	=27
1AA	0r	0E	1c	[0e
2r	.	.	2B\	.
[2AA/	.	.	2E/	.
=28	=28	=28	=28	=28
4AA/]	0r	0r	2r	1e]
4AA/	.	.	.	.
2AA/	.	.	2.E/	.
[1C	.	.	.	2r
.	.	.	4E/	.
.	.	.	2E/	[2e/
=29	=29	=29	=29	=29
2C/]	[0e	2r	1.G	4e/]
.	.	.	.	4e/
2D\	.	2.E/	.	2e/
[1E	.	.	.	[1g
.	.	4E/	.	.
.	.	2E/	2A/	.
=30	=30	=30	=30	=30
2E\]	1e]	1.G	1.B	2g/]
2F\	.	.	.	2a/
[1G	[1d	.	.	[1b
.	.	2A/	2c\	.
=31	=31	=31	=31	=31
1G]	0d]	2.B\	2d\	1b]
.	.	.	2G/	.
.	.	4c\	.	.
1GG	.	2d\	2.G/	1b
.	.	2G/	.	.
.	.	.	4G/	.
=32	=32	=32	=32	=32
2.C/	[0e	2.G/	2E/	2cc\
.	.	.	2E/	2g/
4C/	.	4G/	.	.
2C/	.	2E/	2C/	2.g/
2C/	.	2E/	[2E/	.
.	.	.	.	4g/
=33	=33	=33	=33	=33
2AA/	1e]	2C/	4E/]	2a/
.	.	.	4D/	.
2AA/	.	2C/	4E/	2a/
.	.	.	4F/	.
[1GG	[1B	[1D	[1G	2.b\
.	.	.	.	4cc\
=34	=34	=34	=34	=34
0GG]	0B]	0D_	0G]	1dd
.	.	.	.	[1d
=35	=35	=35	=35	=35
1.D	[0A	1D]	1r	2d/]
.	.	.	.	2e/
.	.	1r	[1A	1f
2E\	.	.	.	.
=36	=36	=36	=36	=36
1F	1A]	1r	2A/]	2.c/
.	.	.	2B\	.
.	.	.	.	4d/
2.C/	[1G	[1E	1c	2.e/
4D\	.	.	.	4f/
=37	=37	=37	=37	=37
0E	0G]	2E/]	2.G/	0g
.	.	2F/	.	.
.	.	.	4A/	.
.	.	1G	2.B\	.
.	.	.	4c\	.
=38	=38	=38	=38	=38
2F\	[0A	2.D/	2.d\	2r
1D	.	.	.	1f
.	.	4E/	8c\L	.
.	.	.	8B\J	.
.	.	2F/	2A/	.
4C/	.	2G/	2d\	4e/
4BB/	.	.	.	4d/
=39	=39	=39	=39	=39
2AA/	1A]	2A/	2c\	2e/
2D\	.	2D/	2A/	2f/
2GG/	[1B	4G/	2d\	2.g/
.	.	4A/	.	.
[2G\	.	4B\	[2G/	.
.	.	4c\	.	8f/L
.	.	.	.	8e/J
=40	=40	=40	=40	=40
2G\]	0B]	2d\	4G/]	0d
.	.	.	4A/	.
4F\	.	2G/	4B\	.
4E\	.	.	4c\	.
2D\	.	2r	2.d\	.
[2G\	.	2G/	.	.
.	.	.	8c\L	.
.	.	.	8B\J	.
=41	=41	=41	=41	=41
2G\]	0r	1c	1A	0r
2F\	.	.	.	.
2.G\	.	2B\	2r	.
.	.	2G/	2d\	.
4F\	.	.	.	.
=42	=42	=42	=42	=42
1D	0r	1.A	1f	2r
.	.	.	.	2a/
1r	.	.	2e\	1cc
.	.	2A/	2c\	.
=43	=43	=43	=43	=43
1r	0r	1G	1.d	2b\
.	.	.	.	2g/
2r	.	1r	.	[1a
2D\	.	.	2d\	.
=44	=44	=44	=44	=44
1F	0r	1A	1c	2a/]
.	.	.	.	2a/
2E\	.	1c	1r	1g
2C/	.	.	.	.
=45	=45	=45	=45	=45
1.D	0r	2B\	1d	1r
.	.	2B\	.	.
.	.	2A/	1f	1a
2D\	.	2F/	.	.
=46	=46	=46	=46	=46
1C	0r	1.G	2e\	1cc
.	.	.	2e\	.
1r	.	.	[1d	2b\
.	.	2G/	.	2b\
=47	=47	=47	=47	=47
1D	0r	2A/	1d]	1a
.	.	2A/	.	.
1F	.	2D/	1r	2r
.	.	[2A/	.	2f/
=48	=48	=48	=48	=48
2E\	0r	2A/]	2r	2g/
2E\	.	2G/	2c\	2g/
1D	.	2F/	2d\	[1a
.	.	4E/	2d\	.
.	.	4D/	.	.
=49	=49	=49	=49	=49
2r	0r	1.A	2e\	2a/]
2C/	.	.	2e\	2g/
2D\	.	.	2A/	1f
2D\	.	4G/	[2d\	.
.	.	4F/	.	.
=50	=50	=50	=50	=50
2E\	0r	1G	2d\]	[0e
2E\	.	.	4c\	.
.	.	.	4B\	.
1AA	.	2.A/	[1c	.
.	.	4B\	.	.
=51	=51	=51	=51	=51
2r	0r	4c\	1c]	0e]
.	.	4d\	.	.
2AA/	.	1e	.	.
2A\	.	.	2r	.
2A\	.	4d\	2A/	.
.	.	4c\	.	.
=52	=52	=52	=52	=52
4G\	0r	1B	2d\	0r
4A\	.	.	.	.
4B\	.	.	2d\	.
4G\	.	.	.	.
2A\	.	1r	4c\	.
.	.	.	4d\	.
2E\	.	.	4e\	.
.	.	.	4c\	.
=53	=53	=53	=53	=53
2G\	0r	1r	2d\	2r
1A	.	.	2A/	2e/
.	.	2r	1c	2a/
2F\	.	2A/	.	2a/
=54	=54	=54	=54	=54
1B-	0r	2d\	4d\	4g/
.	.	.	4e\	4a/
.	.	2d\	4f\	4b\
.	.	.	4d\	4g/
1A	.	4c\	2e\	2a/
.	.	4d\	.	.
.	.	4e\	2c\	2e/
.	.	4c\	.	.
=55	=55	=55	=55	=55
2G\	0r	2d\	2B\	2g/
1F	.	2A/	4c\	2a/
.	.	.	4B\	.
.	.	2c\	4A/	1f
.	.	.	4G/	.
2D\	.	2d\	[2A/	.
=56	=56	=56	=56	=56
1E	0r	2B\	2A/]	2e/
.	.	1c	2G/	1e
1F	.	.	1A	.
.	.	4B\	.	2d/
.	.	4A/	.	.
=57	=57	=57	=57	=57
1E	[0e	1G	1B	1e
2r	.	2r	2r	2r
2E\	.	2G/	2B\	2g/
=58	=58	=58	=58	=58
2E\	0e]	2G/	2B\	2g/
2E\	.	2G/	2B\	2g/
1AA	.	1A	1c	1e
=59	=59	=59	=59	=59
2r	[0d	2r	2r	2r
2D\	.	2F/	2A/	2f/
2D\	.	2F/	2A/	2f/
2D\	.	2F/	2A/	2f/
=60	=60	=60	=60	=60
2GG/	0d]	2G/	2B\	2d/
2GG/	.	2D/	2G/	1g
1D	.	2F/	1A	.
.	.	2F/	.	2f/
=61	=61	=61	=61	=61
1C	[0e	0E	1.c	1g
1AA	.	.	.	1a
.	.	.	4B\	.
.	.	.	4A/	.
=62	=62	=62	=62	=62
[0E	0e]	0r	1B	[0g
.	.	.	2r	.
.	.	.	[2G/	.
=63	=63	=63	=63	=63
1E]	[0B	2r	2G/]	0g]
.	.	1G	2E/	.
2r	.	.	1E	.
[2G\	.	2E/	.	.
=64	=64	=64	=64	=64
2G\]	0B]	1E	2r	2r
2E\	.	.	1e	1g
1E	.	2r	.	.
.	.	[2e\	2e\	2e/
=65	=65	=65	=65	=65
2r	[0A	2e\]	2c\	1e
1A	.	2e\	2c\	.
.	.	2c\	1A	2r
2A\	.	2c\	.	[2a/
=66	=66	=66	=66	=66
2F\	0A]	1A	1r	2a/]
2F\	.	.	.	2a/
1D	.	1r	2r	2f/
.	.	.	[2d\	2f/
=67	=67	=67	=67	=67
1r	[0G	2r	2d\]	1d
.	.	1d	2B\	.
2r	.	.	1B	1r
[2G\	.	2B\	.	.
=68	=68	=68	=68	=68
2G\]	0G]	1B	2r	2r
2E\	.	.	1e	1g
1E	.	2r	.	.
.	.	[2e\	2e\	2e/
=69	=69	=69	=69	=69
2r	[0A	2e\]	1c	1e
1A	.	2e\	.	.
.	.	1c	2.A/	2r
2A\	.	.	.	[2a/
.	.	.	4B\	.
=70	=70	=70	=70	=70
1F	0A]	1A	2c\	2a/]
.	.	.	1A	2a/
1D	.	[1d	.	1f
.	.	.	2F/	.
=71	=71	=71	=71	=71
1.G	[0B	2d\]	2.G/	1d
.	.	2G/	.	.
.	.	.	4A/	.
.	.	1G	4B\	2g/
.	.	.	4c\	.
2GG/	.	.	[2d\	2g/
=72	=72	=72	=72	=72
1GG	0B]	2r	2d\]	2.g/
.	.	2D/	2G/	.
.	.	.	.	8f/L
.	.	.	.	8e/J
2GG/	.	2.G/	2r	1d
[2G\	.	.	2G/	.
.	.	4A/	.	.
=73	=73	=73	=73	=73
2G\]	0r	2B\	2.d\	1r
4F\	.	2G/	.	.
4E\	.	.	4e\	.
1D	.	2A/	2f\	2r
.	.	2B\	2d\	2d/
=74	=74	=74	=74	=74
1C	0r	2.c\	2.e\	2.g/
.	.	8B/L	4f\	4a/
.	.	8A/J	.	.
1r	.	1G	2.g\	2b\
.	.	.	.	2g/
.	.	.	8f\L	.
.	.	.	8e\J	.
=75	=75	=75	=75	=75
0r	0r	0r	2d\	2a/
.	.	.	2d\	2b\
.	.	.	2.e\	2.cc\
.	.	.	8d\L	8b/L
.	.	.	8c\J	8a/J
=76	=76	=76	=76	=76
0r	0r	1r	2B\	2g/
.	.	.	2c\	2g/
.	.	1D	2.A/	2.a/
.	.	.	4B\	8g/L
.	.	.	.	8f/J
=77	=77	=77	=77	=77
1r	0r	2A/	1c	2e/
.	.	2A/	.	2f/
1GG	.	2G/	2B\	2.d/
.	.	2G/	[2G/	.
.	.	.	.	4e/
=78	=78	=78	=78	=78
2D\	0r	2.A/	2G/]	1f
2D\	.	.	2F/	.
.	.	4B\	.	.
2C/	.	1c	1G	1e
2C/	.	.	.	.
=79	=79	=79	=79	=79
2.D\	0r	1B	0r	2r
.	.	.	.	2d/
4E\	.	.	.	.
1F	.	1A	.	2a/
.	.	.	.	2a/
=80	=80	=80	=80	=80
1E	0r	1r	1G	2g/
.	.	.	.	2g/
1D	.	1D	2d\	2.a/
.	.	.	2d\	.
.	.	.	.	4b\
=81	=81	=81	=81	=81
1r	0r	1A	2c\	1cc
.	.	.	2c\	.
1GG	.	2G/	2.d\	1b
.	.	2G/	.	.
.	.	.	4e\	.
=82	=82	=82	=82	=82
1D	0r	2.A/	1f	1a
.	.	4B\	.	.
2C/	.	1c	1e	1r
2C/	.	.	.	.
=83	=83	=83	=83	=83
2.D\	0r	1B	1d	1d
4E\	.	.	.	.
1F	.	2A/	1r	1a
.	.	[2d\	.	.
=84	=84	=84	=84	=84
1E	0r	2d\]	1G	2g/
.	.	2c\	.	2g/
2.D\	.	1f	1d	2.a/
4C/	.	.	.	4b\
=85	=85	=85	=85	=85
2AA/	0r	2e\	2c\	1cc
1A	.	4c\	2c\	.
.	.	4d\	.	.
.	.	2B\	2.d\	1b
2G\	.	[2c\	.	.
.	.	.	4e\	.
=86	=86	=86	=86	=86
2F\	0r	2c\]	1f	2a/
2D\	.	2d\	.	4g/
.	.	.	.	4f/
1E	.	1B	1e	4g/
.	.	.	.	4f/
.	.	.	.	4e/
.	.	.	.	4d/
=87	=87	=87	=87	=87
0AA	0r	1A	1r	2c/
.	.	.	.	1cc
.	.	2r	1c	.
.	.	[2c\	.	2a/
=88	=88	=88	=88	=88
2r	0r	2c\]	2A/	0a
1F	.	2A/	2A/	.
.	.	2A/	2r	.
[2D\	.	[2d\	[2f\	.
=89	=89	=89	=89	=89
2D\]	0r	2d\]	2f\]	2r
1G	.	2G/	2d\	1g
.	.	2B\	2d\	.
2C/	.	[2c\	[2e\	2g/
=90	=90	=90	=90	=90
2E\	0r	4c\]	4e\]	2g/
.	.	4B\	4d\	.
2F\	.	4A/	1c	1a
.	.	4G/	.	.
1D	.	1F	.	.
.	.	.	2B\	4g/
.	.	.	.	4f/
=91	=91	=91	=91	=91
[0C	0r	0G	1c	2e/
.	.	.	.	2g/
.	.	.	2r	2.cc\
.	.	.	2G/	.
.	.	.	.	4b\
=92	=92	=92	=92	=92
0C]	0r	2r	2.c\	2a/
.	.	2G/	.	2g/
.	.	.	4B\	.
.	.	2.c\	2A/	2a/
.	.	.	2G/	2e/
.	.	4B\	.	.
=93	=93	=93	=93	=93
0r	[0e	2A/	2A/	2.cc\
.	.	2G/	2E/	.
.	.	.	.	4b\
.	.	2A/	2.c\	2a/
.	.	2E/	.	2g/
.	.	.	4B\	.
=94	=94	=94	=94	=94
0r	0e_	2.c\	2A/	2a/
.	.	.	2G/	2e/
.	.	4B\	.	.
.	.	2A/	2A/	2cc\
.	.	2G/	2B\	2b\
=95	=95	=95	=95	=95
1r	1e]	2A/	1c	4a/
.	.	.	.	4g/
.	.	2A/	.	4f/
.	.	.	.	4e/
[1D	[1d	2D/	2r	2f/
.	.	[2A/	[2F/	[2f/
=96	=96	=96	=96	=96
2D\]	0d_	2A/]	2F/]	2f/]
2GG/	.	2G/	2G/	2d/
2D\	.	2F/	2A/	2f/
[2D\	.	[2A/	[2F/	[2f/
=97	=97	=97	=97	=97
2D\]	0d]	2A/]	2F/]	2f/]
2GG/	.	2G/	2G/	2d/
1D	.	1F	2.A/	2.f/
.	.	.	4B\	8e/L
.	.	.	.	8d/J
=98	=98	=98	=98	=98
2AA/	[0e	2E/	2c\	1c
2A\	.	2c\	2A/	.
2A\	.	2c\	2A/	1r
2G\	.	2B\	2B\	.
=99	=99	=99	=99	=99
2A\	0e_	2.A/	2c\	2r
2AA/	.	.	2A/	2cc\
.	.	4G/	.	.
2AA/	.	1E	2A/	2cc\
2GG/	.	.	2B\	2b\
=100	=100	=100	=100	=100
2AA/	1e]	[0E	2.c\	2a/
2AA/	.	.	.	2a/
.	.	.	4d\	.
1E	[1B	.	1e	[1g
=101	=101	=101	=101	=101
1r	0B_	0E]	2r	0g]
.	.	.	2e\	.
2r	.	.	2e\	.
2E\	.	.	2e\	.
=102	=102	=102	=102	=102
2E\	0B]	0r	2g\	0r
2E\	.	.	2g\	.
2G\	.	.	1d	.
2G\	.	.	.	.
=103	=103	=103	=103	=103
1D	[0A	0r	2.f\	0r
.	.	.	4g\	.
2.F\	.	.	4a\	.
.	.	.	4f\	.
.	.	.	[2a\	.
4G\	.	.	.	.
=104	=104	=104	=104	=104
4A\	0A_	0r	4a\]	0r
4F\	.	.	4g\	.
2.A\	.	.	4f\	.
.	.	.	4e\	.
.	.	.	4f\	.
4G\	.	.	4e\	.
4F\	.	.	[2e\	.
4E\	.	.	.	.
=105	=105	=105	=105	=105
1F	1A]	0r	2e\]	0r
.	.	.	2d\	.
[1E	[1G	.	[1e	.
=106	=106	=106	=106	=106
0E]	0G_	1r	1e]	2r
.	.	.	.	1e
.	.	2r	1r	.
.	.	[2E/	.	2e/
=107	=107	=107	=107	=107
0r	0G]	2E/]	0r	2g/
.	.	2E/	.	2g/
.	.	2G/	.	2d/
.	.	2G/	.	2d/
=108	=108	=108	=108	=108
0r	[0A	2D/	0r	2.f/
.	.	2D/	.	.
.	.	.	.	4g/
.	.	2.F/	.	4a/
.	.	.	.	4f/
.	.	.	.	2a/
.	.	4G/	.	.
=109	=109	=109	=109	=109
1r	0A_	4A/	0r	4a/
.	.	4F/	.	4g/
.	.	2A/	.	4f/
.	.	.	.	4e/
2r	.	4A/	.	4f/
.	.	4G/	.	4e/
[2D\	.	4F/	.	4d/
.	.	4E/	.	4c/
=110	=110	=110	=110	=110
2D\]	1A]	1F	2r	1d
2D\	.	.	1d	.
2.G\	[1B	1r	.	1r
.	.	.	2d\	.
4F\	.	.	.	.
=111	=111	=111	=111	=111
2E\	0B_	0r	2.g\	0r
2D\	.	.	.	.
.	.	.	4f\	.
2G\	.	.	2e\	.
2G\	.	.	2d\	.
=112	=112	=112	=112	=112
2.G\	0B]	1r	1g	2r
.	.	.	.	1g
4F\	.	.	.	.
2.E\	.	2r	2r	.
.	.	[2G/	2g\	2g/
4D\	.	.	.	.
=113	=113	=113	=113	=113
[0C	0r	2G/]	2.g\	2.cc\
.	.	2G/	.	.
.	.	.	4f\	4b\
.	.	2.c\	2e\	2a/
.	.	.	2d\	2g/
.	.	4B\	.	.
=114	=114	=114	=114	=114
0C]	0r	2A/	2c\	2cc\
.	.	2G/	2g\	2cc\
.	.	2c\	2.g\	2.cc\
.	.	2c\	.	.
.	.	.	4f\	4b\
=115	=115	=115	=115	=115
0r	0r	2.c\	2.e\	2a/
.	.	.	.	2g/
.	.	4B\	4d\	.
.	.	2A/	1c	1f
.	.	2A/	.	.
=116	=116	=116	=116	=116
2r	0r	2G/	2r	[0g
2G\	.	2B\	2d\	.
2C/	.	2c\	2e\	.
2G\	.	2B\	2d\	.
=117	=117	=117	=117	=117
2C/	0r	2c\	2e\	0g]
1G	.	1B	2d\	.
.	.	.	2B\	.
2E\	.	2G/	2c\	.
=118	=118	=118	=118	=118
2F\	0r	2A/	2d\	0r
2G\	.	2.B\	2.e\	.
2A\	.	.	.	.
.	.	4A/	4d\	.
2D\	.	[2A/	[2d\	.
=119	=119	=119	=119	=119
1E	0r	2A/]	2d\]	2r
.	.	2G/	2c#i\	1g
1D	.	[1A	1d	.
.	.	.	.	2f/
=120	=120	=120	=120	=120
0r	0r	2A/]	2r	1e
.	.	4G/	1c	.
.	.	4F/	.	.
.	.	1E	.	2r
.	.	.	2B\	2g/
=121	=121	=121	=121	=121
2r	0r	0r	1A	2.a/
1D	.	.	.	.
.	.	.	.	4g/
.	.	.	2r	2f/
2C/	.	.	2c\	2e/
=122	=122	=122	=122	=122
1BB	0r	2r	2.d\	1d
.	.	1G	.	.
.	.	.	4c\	.
2r	.	.	2B\	2r
2D\	.	2F/	2A/	2f/
=123	=123	=123	=123	=123
2.E\	0r	1E	1G	2.g/
4D\	.	.	.	4f/
2C/	.	2r	2r	2e/
2BB/	.	2G/	2B\	2d/
=124	=124	=124	=124	=124
1.AA	0r	2.A/	2.c\	1c
.	.	4G/	4B\	.
.	.	2F/	2A/	2r
2C/	.	2E/	2G/	2e/
=125	=125	=125	=125	=125
2.D\	0r	2D/	2.F/	2f/
.	.	2F/	.	1d
4C/	.	.	4G/	.
1AA	.	1E	[1A	.
.	.	.	.	2c/
=126	=126	=126	=126	=126
1r	0r	4D/	1A]	1.f
.	.	4E/	.	.
.	.	4F/	.	.
.	.	4G/	.	.
1D	.	4A/	1r	.
.	.	4D/	.	.
.	.	[2d\	.	4e/
.	.	.	.	4d/
=127	=127	=127	=127	=127
1A	0r	2d\]	1A	1e
.	.	4c\	.	.
.	.	4B\	.	.
2A\	.	1c	1e	1r
2A\	.	.	.	.
=128	=128	=128	=128	=128
1G	0r	0r	2e\	1r
.	.	.	2e\	.
2r	.	.	1d	1d
2G\	.	.	.	.
=129	=129	=129	=129	=129
2F\	0r	1r	2r	1a
2D\	.	.	2d\	.
1F	.	1A	2c\	2a/
.	.	.	2A/	2a/
=130	=130	=130	=130	=130
0E	0r	1e	1c	1g
.	.	2e\	1B	2r
.	.	2e\	.	2g/
=131	=131	=131	=131	=131
1r	0r	1d	0r	2f/
.	.	.	.	2d/
1D	.	2r	.	1f
.	.	2d\	.	.
=132	=132	=132	=132	=132
1A	0r	2c\	1A	0e
.	.	2A/	.	.
2A\	.	1c	1e	.
2A\	.	.	.	.
=133	=133	=133	=133	=133
1G	0r	0B	2e\	1r
.	.	.	2e\	.
2r	.	.	1d	1d
2G\	.	.	.	.
=134	=134	=134	=134	=134
2F\	0r	1r	2r	1a
2D\	.	.	2d\	.
1F	.	1A	2c\	2a/
.	.	.	2A/	2a/
=135	=135	=135	=135	=135
1.E	0r	1e	2c\	1g
.	.	.	2.B\	.
.	.	2e\	.	2r
.	.	.	4G/	.
2C/	.	2e\	2c\	2g/
=136	=136	=136	=136	=136
0D	0r	1d	[0A	2f/
.	.	.	.	2d/
.	.	2r	.	1f
.	.	2d\	.	.
=137	=137	=137	=137	=137
0AA	[0e	2c\	1A]	2e/
.	.	2A/	.	2.cc\
.	.	1c	1E	.
.	.	.	.	4b\
.	.	.	.	2a/
=138	=138	=138	=138	=138
[0E	0e_	[0B	2r	0g
.	.	.	2.E/	.
.	.	.	4F/	.
.	.	.	4G/	.
.	.	.	4A/	.
=139	=139	=139	=139	=139
0E]	0e]	1B]	2B\	1r
.	.	.	2E/	.
.	.	1r	2r	2r
.	.	.	[2G/	[2g/
=140	=140	=140	=140	=140
0r	[0d	2r	4G/]	2g/]
.	.	.	4A/	.
.	.	1G	4B\	4f/
.	.	.	4c\	4e/
.	.	.	2d\	2d/
.	.	4F/	2G/	2g/
.	.	4E/	.	.
=141	=141	=141	=141	=141
1r	0d_	2D/	2r	2f/
.	.	2.G/	1g	2d/
2r	.	.	.	2r
.	.	4A/	.	.
[2G\	.	4B\	4f\	[2g/
.	.	4c\	4e\	.
=142	=142	=142	=142	=142
2G\]	0d]	2d\	2d\	4g/]
.	.	.	.	4a/
4F\	.	2G/	2g\	4b\
4E\	.	.	.	4cc\
2D\	.	2A/	2f\	2dd\
2G\	.	2B\	2d\	2b\
=143	=143	=143	=143	=143
[0C	[0e	1G	2g\	2.cc\
.	.	.	2c\	.
.	.	.	.	4b\
.	.	2r	2.c\	2a/
.	.	2c\	.	2g/
.	.	.	4B\	.
=144	=144	=144	=144	=144
1C]	0e_	2.c\	2A/	2r
.	.	.	2G/	2cc\
.	.	4B\	.	.
2.C/	.	2A/	2r	[1cc
.	.	2G/	[2c\	.
4BB/	.	.	.	.
=145	=145	=145	=145	=145
2AA/	0e]	2A/	4c\]	2cc\]
.	.	.	4d\	.
2GG/	.	2E/	2e\	2b\
1AA	.	2r	2.c\	1a
.	.	2E/	.	.
.	.	.	4d\	.
=146	=146	=146	=146	=146
2r	[0B	2E/	0e	1g
2E\	.	2E/	.	.
2E\	.	2G/	.	2r
2E\	.	2G/	.	2e/
=147	=147	=147	=147	=147
2G\	0B_	1E	2r	2e/
2G\	.	.	2e\	2e/
[1E	.	2r	2e\	2g/
.	.	2E/	2e\	2g/
=148	=148	=148	=148	=148
0E]	0B]	2E/	2g\	2e/
.	.	2E/	2g\	2.g/
.	.	2G/	1e	.
.	.	.	.	4a/
.	.	2G/	.	4b\
.	.	.	.	4g/
=149	=149	=149	=149	=149
1AA	[0A	1E	1r	2.cc\
.	.	.	.	4b\
[1D	.	1F	2r	2.a/
.	.	.	2a\	.
.	.	.	.	4g/
=150	=150	=150	=150	=150
2D\]	0A_	2D/	2.a\	2f/
2C/	.	2E/	.	2e/
.	.	.	4g\	.
1D	.	2F/	1f	1d
.	.	2D/	.	.
=151	=151	=151	=151	=151
0AA	0A]	0E	1e	1.c
.	.	.	[1c	.
.	.	.	.	2d/
=152	=152	=152	=152	=152
1r	[0G	1.C	2c\]	2e/
.	.	.	2d\	2f/
[1C	.	.	2e\	[1g
.	.	2D/	2f\	.
=153	=153	=153	=153	=153
2C/]	0G_	2E/	0g	1g]
2D\	.	2F/	.	.
2E\	.	[1G	.	1r
2F\	.	.	.	.
=154	=154	=154	=154	=154
0G	0G]	2G/]	1r	1.d
.	.	2A/	.	.
.	.	2B\	[1d	.
.	.	2c\	.	2e/
=155	=155	=155	=155	=155
1.D	[0A	1d	2d\]	2f/
.	.	.	2e\	2g/
.	.	[1A	2f\	1a
2E\	.	.	2g\	.
=156	=156	=156	=156	=156
2F\	0A_	2A/]	1a	1.A
2G\	.	2B\	.	.
1A	.	2c\	[1A	.
.	.	2d\	.	2B/
=157	=157	=157	=157	=157
0AA	0A]	1e	2A/]	2c/
.	.	.	2B\	2d/
.	.	[1E	2.c\	2.e/
.	.	.	4d\	4f/
=158	=158	=158	=158	=158
[0El	[0Bl	2E/]	[0el	[0gl
.	.	2F/	.	.
.	.	2.G/	.	.
.	.	4A/	.	.
=159	=159	=159	=159	=159
0E]	0B]	0Bl	0e]	0g]
==	==	==	==	==
*-	*-	*-	*-	*-
!!!RDF**kern: V=start of tuplet marker
!!!RDF**kern: Z=end of tuplet marker
!!!RDF**kern: l=long note in original notation
!!!RDF**kern: i=editorial accidental
!!!ENC: Victoria Chang
!!!END: 2011/03/21/
!!!EED: Jesse Rodin
!!!EEV: 2011/04/04/
!!attribution-level@Jos: 4 (questionable)
!!!ONB: Translated from MusicXML and edited on 2011/04/04/ by Craig Sapp
!!muse2ps:  C^@{COA}?\n@{SCT}^v90,90,92,90,130I200Q16
